.cache/img/_logos/logo-bonjour-diamond-jim.svg

<svg xmlns="http://www.w3.org/2000/svg" width="260" height="66" viewBox="0 0 260 66"><path d="M17.4 7.56a4.84 4.84 0 0 1-3.85 4.89 5.39 5.39 0 0 1 4.7 5.55c0 3.78-3.12 6.08-8.16 6.08H0V2.05h9.8c4.7 0 7.6 2.11 7.6 5.51zm-4.32.76c0-1.67-1.32-2.65-3.5-2.61H4.22v5.35h5.36c2.18 0 3.5-1.01 3.5-2.74zm.79 9.17c0-1.79-1.61-2.9-4.29-2.86H4.22v5.83h5.36c2.68.03 4.29-1.08 4.29-2.97zM38.42 15.67c0 5.13-3.59 8.6-8.85 8.6s-8.92-3.47-8.92-8.6 3.59-8.55 8.92-8.55 8.85 3.44 8.85 8.55zm-13.65.06c0 3 2 5.1 4.8 5.1s4.72-2.08 4.72-5.1-1.95-5.11-4.72-5.11-4.8 2.08-4.8 5.11zM58.37 13.59v10.52h-4.12v-9.33A3.5 3.5 0 0 0 50.49 11c-2.77 0-4.41 2.08-4.41 4.85v8.29H42V7.25h4.1v3.15c1.2-2.24 3.31-3.28 6.05-3.31 3.85 0 6.22 2.49 6.22 6.5zM61.43 30.42a6.54 6.54 0 0 1-3.72-1.14L59 26.13a3.71 3.71 0 0 0 2.08.72A1.88 1.88 0 0 0 63 24.71V7.25h4v17.34a5.41 5.41 0 0 1-5.57 5.83zm6.05-28a2.46 2.46 0 0 1-4.91 0 2.46 2.46 0 1 1 4.91 0zM88.54 15.67c0 5.13-3.6 8.6-8.86 8.6s-8.92-3.47-8.92-8.6 3.59-8.55 8.92-8.55 8.86 3.44 8.86 8.55zm-13.65.06c0 3 2 5.1 4.79 5.1s4.73-2.08 4.73-5.1-2-5.11-4.73-5.11-4.79 2.08-4.79 5.11zM107.67 7.25v16.86h-4.13V21a6.09 6.09 0 0 1-5.86 3.28c-3.78 0-6.12-2.49-6.12-6.46V7.25h4.13v9.36c0 2.37 1.36 3.78 3.63 3.78 2.64 0 4.22-2.11 4.22-4.82V7.25zM122.61 7.09v4c-3.56-.22-5.74 1.86-5.74 4.92v8.13h-4.09V7.25h4.09v3.25a6.14 6.14 0 0 1 5.74-3.41zM128.57 22.13a3.25 3.25 0 0 1-.6 1.79L126 26.85h-2l1.23-2.93a2.22 2.22 0 0 1 1.23-4 2.06 2.06 0 0 1 2.11 2.21zM68 50.9c0 6.43-4.85 11-11.66 11h-9V39.87h9.17C63.13 39.87 68 44.44 68 50.9zm-4.31 0a7.07 7.07 0 0 0-7.25-7.35H51.5v14.67h5a7 7 0 0 0 7.14-7.28zM75.74 40.25A2.21 2.21 0 1 1 73.53 38a2.15 2.15 0 0 1 2.21 2.25zm-.16 4.82v16.87h-4.1V45.07zM96.89 45.07v16.87h-4.1v-2.68a6.4 6.4 0 0 1-5.64 2.87c-4.82 0-8-3.53-8-8.67S82.26 45 87 44.92a6.47 6.47 0 0 1 5.8 2.86v-2.71zm-4.1 9.08V53A4.66 4.66 0 0 0 88 48.41c-2.8 0-4.76 2.15-4.79 5.14s2 5.14 4.79 5.14a4.66 4.66 0 0 0 4.79-4.54zM130.2 51.41v10.53h-4.12v-9.33a3.49 3.49 0 0 0-3.69-3.85c-2.65.1-4.26 2.11-4.26 4.86v8.32H114v-9.33c0-2.4-1.38-3.85-3.65-3.85-2.68.1-4.29 2.11-4.29 4.86v8.32H102V45.07h4.1v3.12c1.13-2.19 3.21-3.19 5.9-3.27a5.61 5.61 0 0 1 5.8 4c1.1-2.74 3.31-4 6.27-4 3.8 0 6.13 2.49 6.13 6.49zM151 53.49c0 5.14-3.6 8.6-8.86 8.6s-8.92-3.46-8.92-8.6 3.6-8.49 8.93-8.49 8.85 3.38 8.85 8.49zm-13.65.06c0 3 1.95 5.11 4.79 5.11s4.73-2.08 4.73-5.11-2-5.1-4.73-5.1-4.78 2.08-4.78 5.1zM171 51.41v10.53h-4.13v-9.33a3.5 3.5 0 0 0-3.75-3.82c-2.78 0-4.41 2.08-4.41 4.86v8.29h-4.1V45.07h4.1v3.16c1.15-2.23 3.29-3.23 6.01-3.31 3.87 0 6.28 2.49 6.28 6.49zM191.82 38.55v23.39h-4.09v-2.71a6.42 6.42 0 0 1-5.68 2.9c-4.82 0-8-3.53-8-8.67s3.21-8.54 7.94-8.54a6.5 6.5 0 0 1 5.77 2.93v-9.3zm-4.09 15c0-3-2-5.14-4.79-5.14s-4.76 2.15-4.8 5.14 2 5.14 4.8 5.14 4.79-2.11 4.79-5.14zM210.67 65.28A8.53 8.53 0 0 1 203.9 62l2-3.15a6.86 6.86 0 0 0 4.7 2.45c1.83 0 2.93-1.13 2.93-3.21V43.62h-7.6v-3.75h11.85v18.28c-.02 4.54-2.73 7.13-7.11 7.13zM226.84 40.25a2.21 2.21 0 1 1-2.2-2.27 2.15 2.15 0 0 1 2.2 2.27zm-.16 4.82v16.87h-4.09V45.07zM260 51.41v10.53h-4.13v-9.33a3.49 3.49 0 0 0-3.69-3.85c-2.64.1-4.25 2.11-4.25 4.86v8.32h-4.13v-9.33c0-2.4-1.39-3.85-3.66-3.85-2.68.1-4.28 2.11-4.28 4.86v8.32h-4.1V45.07h4.1v3.12C237 46 239.1 45 241.78 44.92a5.61 5.61 0 0 1 5.8 4c1.1-2.74 3.31-4 6.27-4 3.82 0 6.15 2.49 6.15 6.49z" fill="#fff"/></svg>

<svg id="images" xmlns="http://www.w3.org/2000/svg" width="260" height="66" viewBox="0 0 260 66"><path d="M17.4,7.56a4.84,4.84,0,0,1-3.85,4.89A5.39,5.39,0,0,1,18.25,18c0,3.78-3.12,6.08-8.16,6.08H0V2.05H9.8C14.5,2.05,17.4,4.16,17.4,7.56Zm-4.32.76c0-1.67-1.32-2.65-3.5-2.61H4.22v5.35H9.58C11.76,11.06,13.08,10.05,13.08,8.32Zm.79,9.17c0-1.79-1.61-2.9-4.29-2.86H4.22v5.83H9.58C12.26,20.49,13.87,19.38,13.87,17.49Z" fill="#fff"/><path d="M38.42,15.67c0,5.13-3.59,8.6-8.85,8.6s-8.92-3.47-8.92-8.6,3.59-8.55,8.92-8.55S38.42,10.56,38.42,15.67Zm-13.65.06c0,3,2,5.1,4.8,5.1s4.72-2.08,4.72-5.1-1.95-5.11-4.72-5.11S24.77,12.7,24.77,15.73Z" fill="#fff"/><path d="M58.37,13.59V24.11H54.25V14.78A3.5,3.5,0,0,0,50.49,11c-2.77,0-4.41,2.08-4.41,4.85v8.29H42V7.25h4.1V10.4c1.2-2.24,3.31-3.28,6.05-3.31C56,7.09,58.37,9.58,58.37,13.59Z" fill="#fff"/><path d="M61.43,30.42a6.54,6.54,0,0,1-3.72-1.14L59,26.13a3.71,3.71,0,0,0,2.08.72A1.88,1.88,0,0,0,63,24.71V7.25H67V24.59A5.41,5.41,0,0,1,61.43,30.42Zm6.05-28a2.46,2.46,0,0,1-4.91,0,2.46,2.46,0,1,1,4.91,0Z" fill="#fff"/><path d="M88.54,15.67c0,5.13-3.6,8.6-8.86,8.6s-8.92-3.47-8.92-8.6,3.59-8.55,8.92-8.55S88.54,10.56,88.54,15.67Zm-13.65.06c0,3,2,5.1,4.79,5.1s4.73-2.08,4.73-5.1-2-5.11-4.73-5.11S74.89,12.7,74.89,15.73Z" fill="#fff"/><path d="M107.67,7.25V24.11h-4.13V21a6.09,6.09,0,0,1-5.86,3.28c-3.78,0-6.12-2.49-6.12-6.46V7.25h4.13v9.36c0,2.37,1.36,3.78,3.63,3.78,2.64,0,4.22-2.11,4.22-4.82V7.25Z" fill="#fff"/><path d="M122.61,7.09v4c-3.56-.22-5.74,1.86-5.74,4.92v8.13h-4.09V7.25h4.09V10.5A6.14,6.14,0,0,1,122.61,7.09Z" fill="#fff"/><path d="M128.57,22.13a3.25,3.25,0,0,1-.6,1.79L126,26.85h-2l1.23-2.93a2.22,2.22,0,0,1,1.23-4A2.06,2.06,0,0,1,128.57,22.13Z" fill="#fff"/><path d="M68,50.9c0,6.43-4.85,11-11.66,11h-9V39.87h9.17C63.13,39.87,68,44.44,68,50.9Zm-4.31,0a7.07,7.07,0,0,0-7.25-7.35H51.5V58.22h5A7,7,0,0,0,63.64,50.94Z" fill="#fff"/><path d="M75.74,40.25A2.21,2.21,0,1,1,73.53,38,2.15,2.15,0,0,1,75.74,40.25Zm-.16,4.82V61.94h-4.1V45.07Z" fill="#fff"/><path d="M96.89,45.07V61.94h-4.1V59.26a6.4,6.4,0,0,1-5.64,2.87c-4.82,0-8-3.53-8-8.67S82.26,45,87,44.92a6.47,6.47,0,0,1,5.8,2.86V45.07Zm-4.1,9.08V53A4.66,4.66,0,0,0,88,48.41c-2.8,0-4.76,2.15-4.79,5.14s2,5.14,4.79,5.14A4.66,4.66,0,0,0,92.79,54.15Z" fill="#fff"/><path d="M130.2,51.41V61.94h-4.12V52.61a3.49,3.49,0,0,0-3.69-3.85c-2.65.1-4.26,2.11-4.26,4.86v8.32H114V52.61c0-2.4-1.38-3.85-3.65-3.85-2.68.1-4.29,2.11-4.29,4.86v8.32H102V45.07h4.1v3.12C107.23,46,109.31,45,112,44.92a5.61,5.61,0,0,1,5.8,4c1.1-2.74,3.31-4,6.27-4C127.87,44.92,130.2,47.41,130.2,51.41Z" fill="#fff"/><path d="M151,53.49c0,5.14-3.6,8.6-8.86,8.6s-8.92-3.46-8.92-8.6S136.82,45,142.15,45,151,48.38,151,53.49Zm-13.65.06c0,3,1.95,5.11,4.79,5.11s4.73-2.08,4.73-5.11-2-5.1-4.73-5.1S137.36,50.53,137.36,53.55Z" fill="#fff"/><path d="M171,51.41V61.94h-4.13V52.61a3.5,3.5,0,0,0-3.75-3.82c-2.78,0-4.41,2.08-4.41,4.86v8.29h-4.1V45.07h4.1v3.16C159.86,46,162,45,164.72,44.92,168.59,44.92,171,47.41,171,51.41Z" fill="#fff"/><path d="M191.82,38.55V61.94h-4.09V59.23a6.42,6.42,0,0,1-5.68,2.9c-4.82,0-8-3.53-8-8.67s3.21-8.54,7.94-8.54a6.5,6.5,0,0,1,5.77,2.93v-9.3Zm-4.09,15c0-3-2-5.14-4.79-5.14s-4.76,2.15-4.8,5.14,2,5.14,4.8,5.14S187.73,56.58,187.73,53.55Z" fill="#fff"/><path d="M210.67,65.28A8.53,8.53,0,0,1,203.9,62l2-3.15a6.86,6.86,0,0,0,4.7,2.45c1.83,0,2.93-1.13,2.93-3.21V43.62h-7.6V39.87h11.85V58.15C217.76,62.69,215.05,65.28,210.67,65.28Z" fill="#fff"/><path d="M226.84,40.25a2.21,2.21,0,1,1-2.2-2.27A2.15,2.15,0,0,1,226.84,40.25Zm-.16,4.82V61.94h-4.09V45.07Z" fill="#fff"/><path d="M260,51.41V61.94h-4.13V52.61a3.49,3.49,0,0,0-3.69-3.85c-2.64.1-4.25,2.11-4.25,4.86v8.32H243.8V52.61c0-2.4-1.39-3.85-3.66-3.85-2.68.1-4.28,2.11-4.28,4.86v8.32h-4.1V45.07h4.1v3.12C237,46,239.1,45,241.78,44.92a5.61,5.61,0,0,1,5.8,4c1.1-2.74,3.31-4,6.27-4C257.67,44.92,260,47.41,260,51.41Z" fill="#fff"/></svg>
